X:01
T:Three-Legged Dog
S:Ruth Temple - http://www.rulise.net/ - tunes@rulise.net
D:get real, I just wrote the silly thing 10-25-2002 10:47 am
C:Ruth Temple, copyright 2002.
M:6/8
L:1/8
Q:3/8=120
K:D
D|E2E e2e|def B2B | edc BAG | FGA E2 D | E2E e2e|def B2B | edc BAG |F2 G E3 ||
FGA A2A | def B3 | edc BAG | FGA AFD |  E2E e2e|def B2B | edc BAG |FGF E3 ||
